server/api/resources/providerLogos/vhi-128-disabled.svg

<?xml version="1.0" encoding="UTF-8"?>
<svg width="192px" height="128px" viewBox="0 0 192 128" version="1.1" xmlns="http://www.w3.org/2000/svg" xmlns:xlink="http://www.w3.org/1999/xlink">
    <g id="Symbols" stroke="none" stroke-width="1" fill="none" fill-rule="evenodd">
        <g id="Provider/OpenStack/openstack-128-disabled" fill="#A4AAB5">
            <path d="M188.816746,76.2084846 C187.58555,76.2084846 186.583928,75.2039668 186.583928,73.9692114 C186.583928,72.7340297 187.58555,71.7299382 188.816746,71.7299382 C190.047942,71.7299382 191.049564,72.7340297 191.049564,73.9692114 C191.049564,75.2039668 190.047942,76.2084846 188.816746,76.2084846 M191.776973,73.9692114 C191.776973,75.6064561 190.449271,76.9379965 188.816746,76.9379965 C187.184221,76.9379965 185.856519,75.6064561 185.856519,73.9692114 C185.856519,72.3319668 187.184221,71 188.816746,71 C190.449271,71 191.776973,72.3319668 191.776973,73.9692114 Z M189.322064,73.4476381 C189.322064,73.7094267 189.15626,73.8842367 188.849312,73.8842367 L188.406319,73.8842367 L188.406319,73.0067759 L188.836983,73.0067759 C189.143931,73.0067759 189.322064,73.152593 189.322064,73.4433745 L189.322064,73.4476381 Z M189.927458,73.4310099 L189.927458,73.4143816 C189.927458,73.1274374 189.840305,72.8989054 189.68258,72.7407236 C189.500196,72.5582391 189.231084,72.4627331 188.895226,72.4627331 L187.805601,72.4627331 L187.805601,75.371827 L188.406319,75.371827 L188.406319,74.4159149 L188.78299,74.4159149 L189.317812,75.371827 L190.006109,75.371827 L189.388385,74.2909897 C189.707663,74.1498626 189.927458,73.8714457 189.927458,73.4310099 Z M21.7691268,91.6689348 C21.7691268,98.6485429 17.1300347,103.793073 10.8401366,103.793073 C4.5948779,103.793073 0,98.7376534 0,91.7137032 L0,91.3116403 C0,84.3320322 4.63909212,79.1423077 10.9294153,79.1423077 C17.1746741,79.1423077 21.7691268,84.242069 21.7691268,91.2660191 L21.7691268,91.6689348 Z M5.04084634,91.5798244 C5.04084634,96.0089123 7.49431047,99.3639847 10.9294153,99.3639847 C14.4533738,99.3639847 16.7287056,96.0532543 16.7287056,91.6245928 L16.7287056,91.3559823 C16.7287056,86.9273208 14.2748164,83.6165903 10.8401366,83.6165903 C7.31617818,83.6165903 5.04084634,86.8816996 5.04084634,91.3116403 L5.04084634,91.5798244 Z M45.7663528,91.7589406 C45.7663528,99.7221746 41.3496072,103.748347 36.576597,103.748347 C33.1419173,103.748347 31.0897822,101.824584 29.6621731,99.7221746 L29.6621731,110.056855 L24.6213267,110.056855 L24.6213267,79.589608 L29.6621731,79.589608 L29.6621731,83.3927909 C31.1339965,81.1108812 33.1861315,79.1423503 36.576597,79.1423503 C41.3049679,79.1423503 45.7663528,83.1237541 45.7663528,91.1326093 L45.7663528,91.7589406 Z M29.5728943,91.6689774 C29.5728943,96.321481 32.1602766,99.2749169 35.1936272,99.2749169 C38.2716172,99.2749169 40.680442,96.4114442 40.680442,91.6689774 L40.680442,91.2660618 C40.680442,86.5244477 38.2269778,83.616633 35.1936272,83.616633 C32.1602766,83.616633 29.5728943,86.5687898 29.5728943,91.2217197 L29.5728943,91.6689774 Z M67.6087307,100.125176 C65.4673169,102.406233 62.8357205,103.792774 59.3113369,103.792774 C53.2442105,103.792774 48.5158397,99.1402706 48.5158397,91.7134048 L48.5158397,91.3561102 C48.5158397,84.2421969 52.7982421,79.1420092 58.5975323,79.1420092 C65.0213485,79.1420092 68.4113889,84.5112337 68.4113889,91.6242943 C68.4113889,91.9372468 68.4113889,92.6535414 68.3667495,93.3694095 L53.556686,93.3694095 C54.0026544,97.3508134 56.4565437,99.4984179 59.5345337,99.4984179 C61.7648011,99.4984179 63.4151819,98.5139392 64.9767091,96.9926661 L67.6087307,100.125176 Z M58.5975323,83.3928762 C55.8320178,83.3928762 53.8691615,85.8534332 53.5120466,89.8796055 L63.5044606,89.8796055 C63.2366245,86.1216173 61.5416043,83.3928762 58.5975323,83.3928762 Z M83.2135874,79.1422224 C87.7634008,79.1422224 90.4847011,82.3638424 90.4847011,87.4192616 L90.4847011,103.300961 L85.4438547,103.300961 L85.4438547,88.8501452 C85.4438547,85.5398412 83.8827526,83.7056155 81.2060917,83.7056155 C78.5744952,83.7056155 76.7451319,85.6741464 76.7451319,88.9401084 L76.7451319,103.300961 L71.7042855,103.300961 L71.7042855,79.5894801 L76.7451319,79.5894801 L76.7451319,83.0792842 C78.0834623,80.9768744 80.0016793,79.1422224 83.2135874,79.1422224 Z M110.804494,96.5453231 C110.804494,101.197827 107.280536,103.748347 102.729872,103.748347 C99.9197182,103.748347 96.6631708,102.7191 93.9418705,100.437616 L96.3064811,96.8143599 C98.4474697,98.5586224 100.722802,99.5878694 102.819151,99.5878694 C104.915925,99.5878694 106.120338,98.4690856 106.120338,96.9925808 L106.120338,96.9482388 C106.120338,95.247892 104.291399,94.4876817 101.481245,93.2793611 C97.9568619,91.7589406 95.01279,90.1477043 95.01279,86.2562636 L95.01279,86.1663005 C95.01279,81.9162862 98.4032555,79.2323135 102.819151,79.2323135 C105.451172,79.2323135 108.261751,80.1715973 110.492019,81.7819809 L108.350605,85.4952007 C106.566306,84.2877327 104.60345,83.3927909 102.729872,83.3927909 C100.856294,83.3927909 99.7411608,84.4211852 99.7411608,85.7186164 L99.7411608,85.8085795 C99.7411608,87.3746211 101.614738,88.1791734 104.380678,89.4322625 C108.038555,91.0878409 110.804494,92.7873349 110.804494,96.5005547 L110.804494,96.5453231 Z M126.413177,102.629989 C125.252979,103.256321 123.915074,103.659236 122.220053,103.659236 C118.740309,103.659236 116.108288,102.182732 116.108288,97.5745701 L116.108288,83.9291591 L114.349072,83.9291591 L113.520905,79.589608 L116.108288,79.589608 L116.108288,73.1919892 L121.149134,73.1919892 L121.149134,79.589608 L126.457816,79.589608 L126.457816,83.9291591 L121.149134,83.9291591 L121.149134,96.5453231 C121.149134,98.3799751 122.08571,99.1401853 123.691877,99.1401853 C124.673518,99.1401853 125.565454,98.9167697 126.413177,98.4690856 L126.413177,102.629989 Z M145.727819,81.7371273 C147.289347,83.3027425 148.092005,85.629847 148.092005,88.5820038 L148.092005,103.301004 L143.140437,103.301004 L143.140437,100.393189 C141.757893,102.406488 139.661118,103.748262 136.583128,103.748262 C132.657416,103.748262 129.356229,101.108631 129.356229,96.5008958 L129.356229,96.2770537 C129.356229,91.176866 132.746694,88.671967 137.742901,88.671967 C139.973594,88.671967 141.579335,89.0740299 143.185077,89.6112508 L143.185077,88.6267722 C143.185077,85.450347 141.311924,83.7947686 138.099591,83.7947686 C135.824684,83.7947686 133.951107,84.5110632 132.389579,85.2269313 L130.96197,81.2007591 C133.237302,80.0824016 135.601913,79.3213387 138.769181,79.3213387 C141.847171,79.3213387 144.211357,80.1715121 145.727819,81.7371273 Z M143.229716,95.3377699 L143.229716,92.9663233 C142.069943,92.4747235 140.55348,92.1161499 138.858035,92.1161499 C135.958602,92.1161499 134.263582,93.593081 134.263582,96.0979801 L134.263582,96.1879433 C134.263582,98.5585371 135.913963,99.901163 138.099591,99.9459314 C140.999449,99.9902735 143.229716,98.0217426 143.229716,95.3377699 Z M169.519704,100.214116 C167.646127,102.316952 165.281941,103.79303 161.668704,103.79303 C155.512724,103.79303 151.051764,98.8275739 151.051764,91.7588554 L151.051764,91.3115976 C151.051764,84.2420263 155.646217,79.142265 161.847262,79.142265 C165.237302,79.142265 167.467995,80.3949277 169.430851,82.3634586 L166.620272,86.0771047 C165.37122,84.7796736 163.98825,83.7056582 161.847262,83.7056582 C158.54565,83.7056582 156.13725,86.881657 156.13725,91.3559397 L156.13725,91.5797817 C156.13725,96.1879433 158.54565,99.2748317 161.98118,99.2748317 C164.03289,99.2748317 165.415859,98.2455846 166.798829,96.859043 L169.519704,100.214116 Z M184.948682,90.9942536 L192,103.300876 L186.156495,103.300876 L181.410269,94.808522 L184.948682,90.9942536 Z M185.799126,79.5895654 L191.776973,79.5895654 L177.724929,96.45617 L177.724929,103.301047 L172.684082,103.301047 L172.684082,71 L177.724929,71 L177.724929,90.0142091 L185.799126,79.5895654 Z" id="Combined-Shape"></path>
            <path d="M116.782011,14.0000852 C119.305841,14.0000852 121.370793,16.0710069 121.370793,18.6021334 L121.370793,29.4467748 L110.217503,29.4467748 L110.217503,27.6745601 C110.217503,26.2999113 109.106423,25.185619 107.735736,25.185619 L85.6182313,25.185619 C84.247545,25.185619 83.13604,26.2999113 83.13604,27.6745601 L83.13604,29.4467748 L71.98275,29.4467748 L71.98275,18.6021334 C71.98275,16.0710069 74.047702,14.0000852 76.5715322,14.0000852 L116.782011,14.0000852 Z M110.217545,48.8008589 L110.217545,47.0290703 L121.370835,47.0290703 L121.370835,57.8732856 C121.370835,60.4048382 119.305883,62.4753338 116.782053,62.4753338 L76.5715747,62.4753338 C74.0477445,62.4753338 71.9827925,60.4048382 71.9827925,57.8732856 L71.9827925,47.0290703 L83.1360825,47.0290703 L83.1360825,48.8008589 C83.1360825,50.1755077 84.2475875,51.2902261 85.6182737,51.2902261 L107.735779,51.2902261 C109.106465,51.2902261 110.217545,50.1755077 110.217545,48.8008589 Z M71.9830474,43.8306468 L71.9830474,32.645113 L83.1363374,32.645113 L83.1363374,43.8306468 L71.9830474,43.8306468 Z M110.217375,43.8306468 L110.217375,32.645113 L121.370665,32.645113 L121.370665,43.8306468 L110.217375,43.8306468 Z" id="Combined-Shape"></path>
        </g>
    </g>
</svg>

<?xml version="1.0" encoding="UTF-8" standalone="no"?>
<svg
   width="192"
   height="130"
   viewBox="0 0 192 130"
   fill="none"
   version="1.1"
   id="svg14"
   sodipodi:docname="vhi-128-disabled.svg"
   xml:space="preserve"
   inkscape:version="1.4.2 (ebf0e940, 2025-05-08)"
   xmlns:inkscape="http://www.inkscape.org/namespaces/inkscape"
   xmlns:sodipodi="http://sodipodi.sourceforge.net/DTD/sodipodi-0.dtd"
   xmlns="http://www.w3.org/2000/svg"
   xmlns:svg="http://www.w3.org/2000/svg"><defs
     id="defs14" /><sodipodi:namedview
     id="namedview14"
     pagecolor="#ffffff"
     bordercolor="#000000"
     borderopacity="0.25"
     inkscape:showpageshadow="2"
     inkscape:pageopacity="0.0"
     inkscape:pagecheckerboard="0"
     inkscape:deskcolor="#d1d1d1"
     showguides="true"
     inkscape:zoom="3.2"
     inkscape:cx="-14.53125"
     inkscape:cy="65"
     inkscape:window-width="2560"
     inkscape:window-height="1387"
     inkscape:window-x="0"
     inkscape:window-y="25"
     inkscape:window-maximized="0"
     inkscape:current-layer="svg14" /><mask
     id="mask0_348_107"
     style="mask-type:luminance"
     maskUnits="userSpaceOnUse"
     x="0"
     y="92"
     width="192"
     height="38"><path
       d="M192 92H0V129.486H192V92Z"
       fill="white"
       id="path1" /></mask><g
     id="Provider/OpenStack/openstack-128-disabled"
     fill="#a4aab5"
     style="fill-rule:evenodd;stroke:none;stroke-width:1"
     transform="translate(-1173,278.97153)"><path
       d="m 188.81675,76.208485 c -1.2312,0 -2.23282,-1.004518 -2.23282,-2.239274 0,-1.235181 1.00162,-2.239273 2.23282,-2.239273 1.23119,0 2.23281,1.004092 2.23281,2.239273 0,1.234756 -1.00162,2.239274 -2.23281,2.239274 m 2.96022,-2.239274 c 0,1.637245 -1.3277,2.968785 -2.96022,2.968785 -1.63253,0 -2.96023,-1.33154 -2.96023,-2.968785 0,-1.637244 1.3277,-2.969211 2.96023,-2.969211 1.63252,0 2.96022,1.331967 2.96022,2.969211 z m -2.45491,-0.521573 c 0,0.261789 -0.1658,0.436599 -0.47275,0.436599 h -0.44299 v -0.877461 h 0.43066 c 0.30695,0 0.48508,0.145817 0.48508,0.436599 z m 0.6054,-0.01663 v -0.01663 c 0,-0.286945 -0.0872,-0.515477 -0.24488,-0.673658 -0.18238,-0.182485 -0.4515,-0.277991 -0.78735,-0.277991 h -1.08963 v 2.909094 h 0.60072 v -0.955912 h 0.37667 l 0.53482,0.955912 h 0.6883 l -0.61773,-1.080837 c 0.31928,-0.141127 0.53908,-0.419544 0.53908,-0.85998 z M 21.769127,91.668935 c 0,6.979608 -4.639092,12.124135 -10.92899,12.124135 C 4.5948779,103.79307 0,98.737653 0,91.713703 V 91.31164 c 0,-6.979608 4.6390921,-12.169332 10.929415,-12.169332 6.245259,0 10.839712,5.099761 10.839712,12.123711 z M 5.0408463,91.579824 c 0,4.429088 2.4534642,7.784161 5.8885687,7.784161 3.523959,0 5.799291,-3.310731 5.799291,-7.739392 v -0.268611 c 0,-4.428661 -2.45389,-7.739392 -5.888569,-7.739392 -3.5239588,0 -5.7992907,3.26511 -5.7992907,7.69505 z m 40.7255067,0.179117 c 0,7.963234 -4.416746,11.989409 -9.189756,11.989409 -3.43468,0 -5.486815,-1.92377 -6.914424,-4.026175 V 110.05686 H 24.621327 V 79.589608 h 5.040846 v 3.803183 c 1.471823,-2.28191 3.523959,-4.250441 6.914424,-4.250441 4.728371,0 9.189756,3.981404 9.189756,11.990259 z m -16.193459,-0.08996 c 0,4.652504 2.587383,7.60594 5.620733,7.60594 3.07799,0 5.486815,-2.863473 5.486815,-7.60594 v -0.402915 c 0,-4.741614 -2.453464,-7.649429 -5.486815,-7.649429 -3.03335,0 -5.620733,2.952157 -5.620733,7.605087 z m 38.035837,8.456199 c -2.141414,2.28105 -4.773011,3.66759 -8.297394,3.66759 -6.067127,0 -10.795497,-4.652495 -10.795497,-12.079361 V 91.35611 c 0,-7.113913 4.282402,-12.214101 10.081692,-12.214101 6.423817,0 9.813857,5.369225 9.813857,12.482285 0,0.312953 0,1.029247 -0.04464,1.745116 H 53.556686 c 0.445968,3.981403 2.899858,6.129008 5.977848,6.129008 2.230267,0 3.880648,-0.984479 5.442175,-2.505752 z M 58.597532,83.392876 c -2.765514,0 -4.728371,2.460557 -5.085485,6.486729 h 9.992414 c -0.267837,-3.757988 -1.962857,-6.486729 -4.906929,-6.486729 z m 24.616055,-4.250654 c 4.549814,0 7.271114,3.22162 7.271114,8.27704 V 103.30096 H 85.443855 V 88.850145 c 0,-3.310304 -1.561102,-5.14453 -4.237763,-5.14453 -2.631597,0 -4.46096,1.968531 -4.46096,5.234493 V 103.30096 H 71.704285 V 79.58948 h 5.040847 v 3.489804 c 1.33833,-2.10241 3.256547,-3.937062 6.468455,-3.937062 z m 27.590903,17.403101 c 0,4.652507 -3.52395,7.203027 -8.07462,7.203027 -2.810152,0 -6.066699,-1.02925 -8.788,-3.31073 l 2.364611,-3.62326 c 2.140989,1.744262 4.416319,2.773509 6.512669,2.773509 2.09678,0 3.30119,-1.118783 3.30119,-2.595288 v -0.04434 c 0,-1.700347 -1.82894,-2.460557 -4.63909,-3.668878 -3.524388,-1.52042 -6.46846,-3.131657 -6.46846,-7.023097 v -0.08996 c 0,-4.250015 3.390465,-6.933987 7.80636,-6.933987 2.63202,0 5.4426,0.939283 7.67287,2.549667 l -2.14141,3.71322 c -1.7843,-1.207468 -3.74716,-2.10241 -5.62074,-2.10241 -1.87358,0 -2.988709,1.028394 -2.988709,2.325825 v 0.08996 c 0,1.566042 1.873579,2.370594 4.639519,3.623683 3.65788,1.655579 6.42381,3.355073 6.42381,7.068293 z m 15.60869,6.084667 c -1.1602,0.62633 -2.49811,1.02925 -4.19313,1.02925 -3.47974,0 -6.11176,-1.47651 -6.11176,-6.08467 V 83.929159 h -1.75922 l -0.82816,-4.339551 h 2.58738 v -6.397619 h 5.04084 v 6.397619 h 5.30869 v 4.339551 h -5.30869 v 12.616164 c 0,1.834652 0.93658,2.594862 2.54275,2.594862 0.98164,0 1.87357,-0.223415 2.7213,-0.671099 z m 19.31464,-20.892863 c 1.56153,1.565615 2.36418,3.89272 2.36418,6.844877 V 103.301 h -4.95156 v -2.90781 c -1.38255,2.0133 -3.47932,3.35507 -6.55731,3.35507 -3.92571,0 -7.2269,-2.63963 -7.2269,-7.247364 v -0.223842 c 0,-5.100188 3.39046,-7.605087 8.38667,-7.605087 2.23069,0 3.83643,0.402063 5.44218,0.939284 v -0.984479 c 0,-3.176425 -1.87316,-4.832003 -5.08549,-4.832003 -2.27491,0 -4.14848,0.716294 -5.71001,1.432162 l -1.42761,-4.026172 c 2.27533,-1.118357 4.63994,-1.87942 7.80721,-1.87942 3.07799,0 5.44218,0.850173 6.95864,2.415788 z m -2.4981,13.600643 v -2.371447 c -1.15978,-0.4916 -2.67624,-0.850173 -4.37169,-0.850173 -2.89943,0 -4.59445,1.476931 -4.59445,3.98183 v 0.08996 c 0,2.370594 1.65038,3.71322 3.83601,3.757988 2.89986,0.04434 5.13013,-1.924188 5.13013,-4.608161 z m 26.28998,4.87635 c -1.87357,2.10283 -4.23776,3.57891 -7.851,3.57891 -6.15598,0 -10.61694,-4.965456 -10.61694,-12.034175 v -0.447257 c 0,-7.069572 4.59446,-12.169333 10.7955,-12.169333 3.39004,0 5.62073,1.252663 7.58359,3.221194 l -2.81058,3.713646 c -1.24905,-1.297431 -2.63202,-2.371447 -4.77301,-2.371447 -3.30161,0 -5.71001,3.175999 -5.71001,7.650282 v 0.223842 c 0,4.608161 2.4084,7.69505 5.84393,7.69505 2.05171,0 3.43468,-1.029247 4.81765,-2.415789 z M 184.94868,90.994254 192,103.30088 h -5.84351 l -4.74622,-8.492358 z m 0.85045,-11.404689 h 5.97784 L 177.72493,96.45617 v 6.84488 h -5.04085 V 71 h 5.04085 v 19.014209 z"
       id="Combined-Shape" /><path
       d="m 116.78201,14.000085 c 2.52383,0 4.58878,2.070922 4.58878,4.602048 V 29.446775 H 110.2175 V 27.67456 c 0,-1.374649 -1.11108,-2.488941 -2.48176,-2.488941 H 85.618231 c -1.370686,0 -2.482191,1.114292 -2.482191,2.488941 v 1.772215 H 71.98275 V 18.602133 c 0,-2.531126 2.064952,-4.602048 4.588782,-4.602048 z m -6.56446,34.800774 V 47.02907 h 11.15329 v 10.844216 c 0,2.531552 -2.06496,4.602048 -4.58879,4.602048 H 76.571575 c -2.523831,0 -4.588782,-2.070496 -4.588782,-4.602048 V 47.02907 h 11.153289 v 1.771789 c 0,1.374649 1.111505,2.489367 2.482192,2.489367 h 22.117506 c 1.37069,0 2.48177,-1.114718 2.48177,-2.489367 z M 71.983047,43.830647 V 32.645113 h 11.15329 v 11.185534 z m 38.234333,0 V 32.645113 h 11.15329 v 11.185534 z"
       id="path1-7" /></g><g
     style="fill:#a5abb6;fill-opacity:1;fill-rule:evenodd"
     id="g15"
     transform="translate(-0.25,0.27280305)"><g
       mask="url(#mask0_348_107-9)"
       id="g12-9"
       style="fill:#a5abb6;fill-opacity:1;fill-rule:evenodd"><mask
         id="mask1_348_107-1"
         maskUnits="userSpaceOnUse"
         x="0"
         y="92"
         width="192"
         height="38"><path
           d="M 192,92 H 0 v 37.486 h 192 z"
           fill="#ffffff"
           id="path2-7" /></mask><g
         mask="url(#mask1_348_107-1)"
         id="g11-2"
         style="fill:#a5abb6;fill-opacity:1;fill-rule:evenodd"><path
           d="m 50.0558,107.806 h -0.2012 l -0.4276,-3.593 h -3.4208 v 24.226 h 4.4898 v -15.377 c 1.0691,-2.95 3.2574,-4.576 6.3639,-4.941 v -3.983 c -3.2321,-0.114 -5.5715,1.525 -6.8041,3.668 z"
           fill="#000000"
           id="path3-3"
           style="fill:#a5abb6;fill-opacity:1;fill-rule:evenodd" /><path
           d="m 0,94.8737 15.1427,33.5783 h 4.1755 L 34.3855,94.8737 H 29.2541 L 17.5323,121.746 17.331,122.377 H 17.1298 L 16.9286,121.746 5.11883,94.8737 Z"
           fill="#000000"
           id="path4-6"
           style="fill:#a5abb6;fill-opacity:1;fill-rule:evenodd" /><path
           d="m 95.1196,118.57 c 0,6.53 -3.4586,10.916 -10.0992,10.916 -6.6407,0 -10.1371,-4.386 -10.0993,-10.916 v -14.432 h 4.6158 v 13.979 c 0,5.105 2.4649,7.096 5.4835,7.096 3.0185,0 5.408,-1.991 5.4836,-7.096 v -13.979 h 4.6156 z"
           fill="#000000"
           id="path5-5"
           style="fill:#a5abb6;fill-opacity:1;fill-rule:evenodd" /><path
           d="m 38.6623,104.15 h -4.6912 v 24.302 h 4.6912 z"
           fill="#000000"
           id="path6-5"
           style="fill:#a5abb6;fill-opacity:1;fill-rule:evenodd" /><path
           d="m 60.0166,119.566 c 0,5.735 2.7419,9.125 8.4644,9.125 h 1.2703 v -3.983 c -4.1002,-0.075 -5.2069,-1.991 -5.2069,-6.655 v -9.995 h 5.9237 v -3.907 h -5.9237 v -9.2773 h -4.5278 z"
           fill="#000000"
           id="path7-8"
           style="fill:#a5abb6;fill-opacity:1;fill-rule:evenodd" /><path
           d="m 128.498,128.44 h 16.627 v -3.819 h -9.948 l 9.231,-20.483 h -15.306 v 3.819 h 8.502 z"
           fill="#000000"
           id="path8-1"
           style="fill:#a5abb6;fill-opacity:1;fill-rule:evenodd" /><path
           d="m 147.666,128.44 h 16.652 v -3.819 h -9.936 l 9.182,-20.483 h -15.307 v 3.819 h 8.515 z"
           fill="#000000"
           id="path9-4"
           style="fill:#a5abb6;fill-opacity:1;fill-rule:evenodd" /><path
           d="m 112.904,103.18 c -7.395,0 -13.0047,5.735 -13.0047,13.146 0,7.412 5.6097,13.147 13.0047,13.147 7.395,0 13.005,-5.735 13.005,-13.147 0,-7.411 -5.61,-13.146 -13.005,-13.146 z m 0,22.032 c -4.729,0 -8.188,-4.02 -8.188,-8.886 0,-4.865 3.459,-8.886 8.188,-8.886 4.729,0 8.188,4.021 8.188,8.886 0,4.866 -3.459,8.886 -8.188,8.886 z"
           fill="#000000"
           id="path10-7"
           style="fill:#a5abb6;fill-opacity:1;fill-rule:evenodd" /><path
           d="m 178.995,103.18 c -7.395,0 -13.004,5.735 -13.004,13.146 0,7.412 5.609,13.147 13.004,13.147 7.396,0 13.005,-5.735 13.005,-13.147 -0.013,-7.411 -5.609,-13.146 -13.005,-13.146 z m 0,22.032 c -4.729,0 -8.187,-4.02 -8.187,-8.886 0,-4.865 3.458,-8.886 8.187,-8.886 4.729,0 8.188,4.021 8.188,8.886 0,4.866 -3.459,8.886 -8.188,8.886 z"
           fill="#000000"
           id="path11-1"
           style="fill:#a5abb6;fill-opacity:1;fill-rule:evenodd" /></g></g><path
       d="m 125.761,17.4077 c 1.778,1.0451 1.777,3.6168 -10e-4,4.6609 L 97.5121,38.6487 c -0.8447,0.4958 -1.8916,0.4958 -2.7362,0 L 66.5284,22.0686 C 64.7496,21.0245 64.7488,18.4528 66.5271,17.4077 L 94.7744,0.805509 c 0.8454,-0.496863 1.8937,-0.496863 2.7391,-3e-6 z"
       fill="#cb333b"
       id="path12-3"
       style="fill:#a5abb6;fill-opacity:1;fill-rule:evenodd" /><path
       d="m 100.304,81.7669 c 0,2.0893 2.269,3.3884 4.071,2.3308 l 28.179,-16.5395 c 0.826,-0.4854 1.334,-1.3719 1.334,-2.3308 V 32.0706 c 0,-2.0892 -2.269,-3.3884 -4.07,-2.3309 l -28.179,16.5396 c -0.827,0.4854 -1.335,1.3719 -1.335,2.3308 z"
       fill="#cb333b"
       id="path13-8"
       style="fill:#a5abb6;fill-opacity:1;fill-rule:evenodd" /><path
       d="m 91.9895,81.7669 c 0,2.0893 -2.2691,3.3884 -4.0708,2.3308 L 59.74,67.5582 C 58.9132,67.0728 58.4054,66.1863 58.4054,65.2274 V 32.0706 c 0,-2.0892 2.2691,-3.3884 4.0708,-2.3309 l 28.1786,16.5396 c 0.827,0.4854 1.3347,1.3719 1.3347,2.3308 z"
       fill="#cb333b"
       id="path14-4"
       style="fill:#a5abb6;fill-opacity:1;fill-rule:evenodd" /></g></svg>
